src/images/icons/icon-grape.svg

<svg width="43" height="52" viewBox="0 0 43 52" fill="none" xmlns="http://www.w3.org/2000/svg">
<path fill-rule="evenodd" clip-rule="evenodd" d="M37.4876 16.865C40.5271 16.865 43 19.3467 43 22.3973C43 25.1498 40.9864 27.4385 38.3601 27.8595C38.7589 28.6245 38.9858 29.4933 38.9858 30.4149C38.9858 33.164 36.9773 35.4502 34.3559 35.8754C34.7608 36.6451 34.9914 37.5208 34.9914 38.45C34.9914 41.1962 32.9869 43.4803 30.3696 43.909C30.7694 44.6748 30.9969 45.5449 30.9969 46.4677C30.9969 49.5182 28.524 52 25.4845 52C23.9136 52 22.4951 51.336 21.4902 50.2743C20.4851 51.336 19.0668 52 17.4958 52C14.4562 52 11.9834 49.5182 11.9834 46.4677C11.9834 45.5448 12.2109 44.6748 12.6107 43.909C9.99332 43.4804 7.98891 41.1962 7.98891 38.45C7.98891 37.5208 8.21934 36.6451 8.62433 35.8754C6.00292 35.4502 3.99446 33.1639 3.99446 30.4149C3.99446 29.492 4.22195 28.622 4.62178 27.8563C2.00441 27.4277 0 25.1435 0 22.3973C0 19.3467 2.47285 16.865 5.51241 16.865C7.08846 16.865 8.51109 17.5332 9.51668 18.6011C10.5223 17.5332 11.9449 16.865 13.521 16.865C15.0919 16.865 16.5103 17.529 17.5154 18.5907C18.1791 17.8896 19.0228 17.3628 19.9722 17.0856V13.2634C19.4007 13.491 18.7946 13.6054 18.1883 13.6054C16.954 13.6054 15.7197 13.1339 14.7801 12.1909C12.0116 9.41251 10.4525 3.36395 10.2838 2.68348L9.67475 0.226078L12.1232 0.837383C12.6894 0.978758 16.9853 2.09341 19.9992 4.0753C20.2459 1.7873 22.1816 0 24.5259 0H31.6249V3.04688H24.5259C23.6889 3.04688 23.008 3.73029 23.008 4.57031V17.0743C23.9734 17.3484 24.8315 17.88 25.5042 18.5907C26.5092 17.529 27.9277 16.865 29.4987 16.865C31.0697 16.865 32.488 17.529 33.4931 18.5907C34.4982 17.529 35.9166 16.865 37.4876 16.865ZM19.0136 38.45C19.0136 39.8205 20.1246 40.9355 21.4901 40.9355C22.8556 40.9355 23.9666 39.8205 23.9666 38.45C23.9666 37.0796 22.8557 35.9645 21.4901 35.9645C20.1246 35.9645 19.0136 37.0796 19.0136 38.45ZM17.4957 27.9296C18.8612 27.9296 19.9722 29.0445 19.9722 30.415C19.9722 31.7855 18.8612 32.9005 17.4957 32.9005C16.1301 32.9005 15.0192 31.7855 15.0192 30.415C15.0192 29.0445 16.1301 27.9296 17.4957 27.9296ZM23.008 30.4149C23.008 31.7854 24.1189 32.9004 25.4845 32.9004C26.85 32.9004 27.961 31.7854 27.961 30.4149C27.961 29.0444 26.85 27.9295 25.4845 27.9295C24.1189 27.9295 23.008 29.0444 23.008 30.4149ZM29.4987 19.9119C30.8642 19.9119 31.9752 21.0269 31.9752 22.3974C31.9752 23.7679 30.8642 24.8828 29.4987 24.8828C28.1331 24.8828 27.0222 23.7679 27.0222 22.3974C27.0222 21.0269 28.1331 19.9119 29.4987 19.9119ZM16.9267 10.0365C17.6224 10.7347 18.7542 10.7343 19.4498 10.0365C20.1454 9.33837 20.1454 8.20249 19.4498 7.50425C18.272 6.32227 15.977 5.30329 14.0495 4.61551C14.736 6.5519 15.7518 8.85737 16.9267 10.0365ZM21.5098 19.9119C22.8753 19.9119 23.9863 21.0269 23.9863 22.3974C23.9863 23.7679 22.8753 24.8828 21.5098 24.8828C20.1442 24.8828 19.0333 23.7679 19.0333 22.3974C19.0333 21.0269 20.1443 19.9119 21.5098 19.9119ZM15.9975 22.3974C15.9975 21.0269 14.8865 19.9119 13.521 19.9119C12.1554 19.9119 11.0445 21.0269 11.0445 22.3974C11.0445 23.7679 12.1554 24.8828 13.521 24.8828C14.8865 24.8828 15.9975 23.7679 15.9975 22.3974ZM3.03581 22.3973C3.03581 21.0268 4.14676 19.9118 5.51231 19.9118C6.87787 19.9118 7.98881 21.0268 7.98881 22.3973C7.98881 23.7678 6.87787 24.8827 5.51231 24.8827C4.14676 24.8827 3.03581 23.7678 3.03581 22.3973ZM9.50677 27.9296C8.14121 27.9296 7.03027 29.0445 7.03027 30.415C7.03027 31.7855 8.14121 32.9005 9.50677 32.9005C10.8723 32.9005 11.9833 31.7855 11.9833 30.415C11.9833 29.0445 10.8723 27.9296 9.50677 27.9296ZM11.0247 38.45C11.0247 37.0796 12.1357 35.9645 13.5012 35.9645C14.8668 35.9645 15.9777 37.0796 15.9777 38.45C15.9777 39.8205 14.8668 40.9355 13.5012 40.9355C12.1357 40.9355 11.0247 39.8205 11.0247 38.45ZM15.0192 46.4677C15.0192 47.8382 16.1301 48.9531 17.4957 48.9531C18.8612 48.9531 19.9722 47.8382 19.9722 46.4677C19.9722 45.0972 18.8612 43.9823 17.4957 43.9823C16.1301 43.9823 15.0192 45.0972 15.0192 46.4677ZM25.4845 48.9531C24.1189 48.9531 23.008 47.8382 23.008 46.4677C23.008 45.0972 24.1189 43.9823 25.4845 43.9823C26.85 43.9823 27.961 45.0972 27.961 46.4677C27.961 47.8382 26.85 48.9531 25.4845 48.9531ZM27.0024 38.45C27.0024 39.8205 28.1134 40.9355 29.4789 40.9355C30.8445 40.9355 31.9554 39.8205 31.9554 38.45C31.9554 37.0796 30.8445 35.9645 29.4789 35.9645C28.1134 35.9645 27.0024 37.0796 27.0024 38.45ZM33.4734 32.9004C32.1078 32.9004 30.9969 31.7854 30.9969 30.4149C30.9969 29.0444 32.1078 27.9295 33.4734 27.9295C34.839 27.9295 35.9499 29.0444 35.9499 30.4149C35.9499 31.7854 34.839 32.9004 33.4734 32.9004ZM35.0111 22.3973C35.0111 23.7678 36.122 24.8827 37.4876 24.8827C38.8531 24.8827 39.9641 23.7678 39.9641 22.3973C39.9641 21.0268 38.8531 19.9118 37.4876 19.9118C36.122 19.9118 35.0111 21.0268 35.0111 22.3973Z" fill="#EF633E"/>
</svg>

<svg width="43" height="52" fill="none" xmlns="http://www.w3.org/2000/svg"><path fill-rule="evenodd" clip-rule="evenodd" d="M37.488 16.865c3.04 0 5.512 2.482 5.512 5.532a5.535 5.535 0 01-4.64 5.463 5.534 5.534 0 01-4.004 8.016 5.535 5.535 0 01-3.986 8.034c.4.765.627 1.635.627 2.558 0 3.05-2.473 5.532-5.512 5.532-1.571 0-2.99-.664-3.995-1.726A5.487 5.487 0 0117.496 52c-3.04 0-5.513-2.482-5.513-5.532 0-.923.228-1.793.628-2.559a5.534 5.534 0 01-3.987-8.034 5.534 5.534 0 01-4.002-8.019A5.534 5.534 0 010 22.397c0-3.05 2.473-5.532 5.512-5.532 1.576 0 3 .668 4.005 1.736a5.487 5.487 0 017.998-.01 5.514 5.514 0 012.457-1.505v-3.823a4.823 4.823 0 01-1.784.342 4.796 4.796 0 01-3.408-1.414c-2.768-2.778-4.327-8.827-4.496-9.508L9.674.226l2.45.611c.565.142 4.861 1.256 7.875 3.238C20.246 1.787 22.182 0 24.526 0h7.099v3.047h-7.1c-.836 0-1.517.683-1.517 1.523v12.504a5.513 5.513 0 012.496 1.517 5.487 5.487 0 017.99 0 5.487 5.487 0 013.994-1.726zM19.014 38.45a2.484 2.484 0 002.476 2.485 2.484 2.484 0 002.477-2.485c0-1.37-1.111-2.486-2.477-2.486a2.484 2.484 0 00-2.476 2.486zm-1.518-10.52a2.484 2.484 0 012.476 2.485 2.484 2.484 0 01-2.476 2.486 2.484 2.484 0 01-2.477-2.486c0-1.37 1.111-2.485 2.477-2.485zm5.512 2.485c0 1.37 1.11 2.485 2.477 2.485a2.484 2.484 0 002.476-2.485 2.484 2.484 0 00-2.476-2.485 2.484 2.484 0 00-2.477 2.485zm6.49-10.503a2.484 2.484 0 012.477 2.485 2.484 2.484 0 01-2.476 2.486 2.484 2.484 0 01-2.477-2.486c0-1.37 1.111-2.485 2.477-2.485zm-12.571-9.875a1.782 1.782 0 002.523 0 1.797 1.797 0 000-2.533c-1.178-1.182-3.473-2.2-5.4-2.888.686 1.936 1.702 4.241 2.877 5.42zm4.583 9.875a2.484 2.484 0 012.476 2.485 2.484 2.484 0 01-2.476 2.486 2.484 2.484 0 01-2.477-2.486 2.484 2.484 0 012.477-2.485zm-5.513 2.485a2.484 2.484 0 00-2.476-2.485 2.484 2.484 0 00-2.477 2.485c0 1.37 1.111 2.486 2.477 2.486a2.484 2.484 0 002.476-2.486zm-12.961 0c0-1.37 1.11-2.485 2.476-2.485a2.484 2.484 0 012.477 2.485c0 1.37-1.111 2.486-2.477 2.486a2.484 2.484 0 01-2.476-2.486zm6.47 5.533a2.484 2.484 0 00-2.476 2.485c0 1.37 1.111 2.486 2.477 2.486a2.484 2.484 0 002.476-2.486 2.484 2.484 0 00-2.476-2.485zm1.519 10.52a2.484 2.484 0 012.476-2.486 2.484 2.484 0 012.477 2.486c0 1.37-1.111 2.485-2.477 2.485a2.484 2.484 0 01-2.476-2.485zm3.994 8.018c0 1.37 1.111 2.485 2.477 2.485a2.484 2.484 0 002.476-2.485 2.484 2.484 0 00-2.476-2.486 2.484 2.484 0 00-2.477 2.486zm10.466 2.485a2.484 2.484 0 01-2.477-2.485c0-1.37 1.11-2.486 2.477-2.486a2.484 2.484 0 012.476 2.486 2.484 2.484 0 01-2.476 2.485zm1.517-10.503a2.484 2.484 0 002.477 2.485 2.484 2.484 0 002.476-2.485c0-1.37-1.11-2.486-2.476-2.486a2.484 2.484 0 00-2.477 2.486zm6.471-5.55a2.484 2.484 0 01-2.476-2.485c0-1.37 1.11-2.485 2.476-2.485a2.484 2.484 0 012.477 2.485c0 1.37-1.111 2.485-2.477 2.485zm1.538-10.503c0 1.37 1.111 2.486 2.477 2.486a2.484 2.484 0 002.476-2.486 2.484 2.484 0 00-2.476-2.485 2.484 2.484 0 00-2.477 2.485z" fill="#EF633E"/></svg>
